svgs/solid/deer.svg

<svg xmlns="http://www.w3.org/2000/svg" viewBox="0 0 576 512"><!--! Font Awesome Pro 6.1.2 by @fontawesome - https://fontawesome.com License - https://fontawesome.com/license (Commercial License) Copyright 2022 Fonticons, Inc. --><path d="M272 .0006C280.8 .0006 288 7.164 288 16V40C288 53.26 298.7 64 312 64H328C341.3 64 352 53.26 352 40V16C352 7.164 359.2 .0006 368 .0006C376.8 .0006 384 7.164 384 16V40C384 48.59 382.1 56.73 378.6 64H448C461.3 64 472 53.26 472 40V16C472 7.164 479.2 .0006 488 .0006C496.8 .0006 504 7.164 504 16V40C504 61.66 491.7 80.44 473.7 89.76C474.3 90.3 474.8 90.85 475.4 91.4L530.7 146.7C539.2 155.2 544 166.7 544 178.7C544 203.7 523.7 224 498.7 224H442.7L416 304V480C416 497.7 401.7 512 384 512H352C334.3 512 320 497.7 320 480V368H283.7C254.9 368 228.4 358.2 207.4 341.6C205.3 358.5 197.6 374.3 185.5 386.4L174.9 396.1C170.3 401.6 168.7 408.5 170.9 414.6L190.2 469.4C197.6 490.2 182.1 512 160 512H126.1C112.5 512 100.4 503.4 95.92 490.6L80.37 446.6C68.93 414.2 72.1 378.8 90.39 350.3C97.02 339.4 97.03 324.9 88 315.9C85.04 312.9 82.33 309.8 79.88 306.4C78.58 319.3 67.18 328.9 54.16 327.9C40.94 326.9 31.06 315.4 32.07 302.2L34.39 272C38.56 217.8 83.74 176 138.1 176H224C224.6 176 225.2 176 225.7 176C226.6 176 227.4 176 228.3 176H334.4L344 144H305.1C296 144 288 135.1 288 126C288 117.8 293.6 110.6 301.6 108.6L352 96H312C281.1 96 256 70.93 256 40V16C256 7.164 263.2 0 272 0V.0006zM432 160C440.8 160 448 152.8 448 144C448 135.2 440.8 128 432 128C423.2 128 416 135.2 416 144C416 152.8 423.2 160 432 160z"/></svg>

<svg xmlns="http://www.w3.org/2000/svg" viewBox="0 0 576 512"><!--! Font Awesome Pro 6.2.0 by @fontawesome - https://fontawesome.com License - https://fontawesome.com/license (Commercial License) Copyright 2022 Fonticons, Inc. --><path d="M272 0c8.8 0 16 7.2 16 16V40c0 13.3 10.7 24 24 24h8 8c13.3 0 24-10.7 24-24V16c0-8.8 7.2-16 16-16s16 7.2 16 16V40c0 8.6-1.9 16.7-5.4 24h30.6H448c13.3 0 24-10.7 24-24V16c0-8.8 7.2-16 16-16s16 7.2 16 16V40c0 21.7-12.3 40.4-30.3 49.8c.6 .5 1.1 1.1 1.7 1.6l55.3 55.3c8.5 8.5 13.3 20 13.3 32c0 25-20.3 45.3-45.3 45.3H448h-5.3L416 304v64V480c0 17.7-14.3 32-32 32H352c-17.7 0-32-14.3-32-32V368H283.7c-28.8 0-55.3-9.8-76.3-26.4c-2.1 16.9-9.8 32.6-21.9 44.8L174.9 397c-4.6 4.6-6.2 11.5-4 17.7l19.3 54.7c7.3 20.8-8.1 42.6-30.2 42.6H126.1c-13.6 0-25.7-8.6-30.2-21.4l-15.5-44c-11.4-32.4-7.4-67.8 10-96.3C97 339.4 97 324.9 88 315.9c-3-3-5.7-6.1-8.1-9.5c-1.3 12.9-12.7 22.5-25.7 21.5c-13.2-1-23.1-12.6-22.1-25.8L34.4 272c4.2-54.2 49.3-96 103.7-96h7.9H160h64c.6 0 1.2 0 1.7 0c.8 0 1.7 0 2.5 0H334.4l9.6-32H306c-9.9 0-18-8-18-18c0-8.2 5.6-15.4 13.6-17.4L352 96H328h-8-8c-30.9 0-56-25.1-56-56V16c0-8.8 7.2-16 16-16zM432 160c8.8 0 16-7.2 16-16s-7.2-16-16-16s-16 7.2-16 16s7.2 16 16 16z"/></svg>
